images/trees/palm-tree.svg

<?xml version="1.0" standalone="no"?><!DOCTYPE svg PUBLIC "-//W3C//DTD SVG 1.1//EN" "http://www.w3.org/Graphics/SVG/1.1/DTD/svg11.dtd"><svg width="336px" height="744px" version="1.1" xmlns="http://www.w3.org/2000/svg" xmlns:xlink="http://www.w3.org/1999/xlink" xml:space="preserve" style="fill-rule:evenodd;clip-rule:evenodd;stroke-linejoin:round;stroke-miterlimit:1.41421;"><g><g id="palm-tree" transform="matrix(1,0,0,1,0,144)"><g transform="matrix(1,0,0,1,-1985.9,-263.5)"><path d="M2084.51,562.238l-0.528,7.922l20.868,-27.66l-13.5,6l-6.84,13.738Z" style="fill:#8eaf44;fill-rule:nonzero;"/></g><g transform="matrix(1,0,0,1,-1985.9,-263.5)"><path d="M2151.19,495.166l22.182,-81.199l24.557,-29.708l46.734,1.188l1.188,4.753l-20.986,8.319l-3.169,-3.169l-0.396,2.773l-25.747,22.18l-5.1,11.554l-6.254,4.176l3.979,0.973l-28.495,59.547l-8.493,-1.387Z" style="fill:#689d46;fill-rule:nonzero;"/></g><g transform="matrix(1,0,0,1,-1985.9,-263.5)"><path d="M2246.72,560.027l-8.021,-27.133l9.952,17.639l-1.931,9.494Z" style="fill:#8abb6b;fill-rule:nonzero;"/></g><g transform="matrix(1,0,0,1,-1985.9,-263.5)"><path d="M2146.8,501.531l7.088,-11.516l25.724,-29.599l53.228,-24.794l35.002,5.43l-20.167,15.139l-6.87,-1.373l-2.386,1.928l1.68,4.186l-19.966,6.127l-12.034,-3.581l5.448,6.092l-24.869,9.477l-23.544,17.591l-4.047,-0.413l0.442,2.687l-8.821,5.836l-5.908,-3.217Z" style="fill:#689d46;fill-rule:nonzero;"/></g><g transform="matrix(1,0,0,1,-1985.9,-263.5)"><path d="M2159.9,493.185l-85.029,-35.385l-40.667,1.057l-31.423,15.58l-10.827,11.09l38.553,-2.113l4.753,-2.375l1.321,3.167l50.965,-3.696l45.948,11.883l26.406,0.792Z" style="fill:#689d46;fill-rule:nonzero;"/></g><g transform="matrix(1,0,0,1,-1985.9,-263.5)"><path d="M2149.21,503.088l-4.668,143.787l1.896,75.651l-5.46,93.724l-0.878,47.25l29.311,0l-2.016,-67.299l-6.542,-88.117l3.814,-81.271l-6.741,-128.875l-8.716,5.15Z" style="fill:#7d705a;fill-rule:nonzero;"/></g><g transform="matrix(1,0,0,1,-1985.9,-263.5)"><path d="M2155.28,501.107l-4.884,0.265l-6.866,-19.674l0.792,-0.396l-4.889,-2.64l-12.606,-45.287l11.023,-3.625l-16.7,-5.634l-3.235,-6.982l-33.565,-2.384l27.623,-14.649l15.053,10.151l15.052,17.693l13.202,73.162Z" style="fill:#35833f;fill-rule:nonzero;"/></g><g transform="matrix(1,0,0,1,-1985.9,-263.5)"><path d="M2158.27,500.992l-6.383,-74.447l-12.087,-24.479l-27.726,-2.178l-21.985,12.286l32.084,2.172l4.178,7.154l15.875,6.25l-13.234,0.943l12.109,38.182l5.701,4.846l-4.356,0.396l9.109,29.305l6.715,-0.43Z" style="fill:#8abb6b;fill-rule:nonzero;"/></g><g transform="matrix(1,0,0,1,-1985.9,-263.5)"><path d="M2067.88,536.097l15.58,-2.376l66.941,-32.349l-36.837,3.301l-45.684,31.424Z" style="fill:#35833f;fill-rule:nonzero;"/></g><g transform="matrix(1,0,0,1,-1985.9,-263.5)"><path d="M2159.75,493.543l-13.317,-2.338l-39.214,-0.396l-53.87,23.37l-19.162,29.791l24.709,-5.043l3.531,-6.052l3.024,-0.504l2.019,4.034l17.831,-10.871l29.841,-15.581l28.783,-5.941l2.376,-3.3l1.716,2.112l10.22,-2.726l1.513,-6.555Z" style="fill:#8abb6b;fill-rule:nonzero;"/></g><g transform="matrix(1,0,0,1,-1985.9,-263.5)"><path d="M2146.43,722.917l-5.331,93.833l19.832,-108.415" style="fill:#64594a;fill-rule:nonzero;"/></g><g transform="matrix(1,0,0,1,-1985.9,-263.5)"><path d="M2164.66,626.812l-20.125,20.125l14.688,-123.75l5.437,103.625Z" style="fill:#998c75;fill-rule:nonzero;"/></g><g transform="matrix(1,0,0,1,-1985.9,-263.5)"><path d="M2160.83,491.998l55.784,-20.23l26.867,1.744l2.907,5.547l-9.507,-2.114l-6.603,1.585l-13.467,0.264l-55.981,13.204Z" style="fill:#007043;fill-rule:nonzero;"/></g><g transform="matrix(1,0,0,1,-1985.9,-263.5)"><path d="M2151.06,491.998l-42.25,14.787l-24.295,55.453l-0.528,7.922l15.844,-19.541l20.597,-31.16l30.939,-17.361l-0.307,-10.1Z" style="fill:#689d46;fill-rule:nonzero;"/></g><g transform="matrix(1,0,0,1,-1985.9,-263.5)"><path d="M2135.21,510.481l-35.385,40.139l20.597,-31.16l14.788,-8.979Z" style="fill:#35833f;fill-rule:nonzero;"/></g><g transform="matrix(1,0,0,1,-1985.9,-263.5)"><path d="M2151.17,502.692l0,-7.923l80.167,14.392l25.087,20.861l-2.906,26.671l-6.865,3.434l0.528,-10.299l-8.449,-16.901l0.528,-6.601l-6.97,2.9l-18.382,-10.558l-12.759,-3.739l-4.668,-5.429l-0.362,3.61l-44.949,-10.418Z" style="fill:#35833f;fill-rule:nonzero;"/></g><g transform="matrix(1,0,0,1,-1985.9,-263.5)"><path d="M2151.56,494.869l79.913,14.358l15.15,12.675l-12.813,-2.758l-1.243,-5.037l-2.161,3.139l-13.894,-6.813l-1.292,-1.868l-5.806,-0.352l-57.854,-13.344Z" style="fill:#8abb6b;fill-rule:nonzero;"/></g><g transform="matrix(1,0,0,1,-1985.9,-263.5)"><path d="M2149.21,503.088l5.721,-9.11l-32.656,-38.818l-27.132,-9.11l-30.698,2.179l-12.674,14.656l11.486,-1.388l6.535,-9.11l-0.198,8.121l21.786,-0.792l9.902,4.753l5.743,0.594l-2.97,1.188l23.172,15.646l21.983,21.191Z" style="fill:#35833f;fill-rule:nonzero;"/></g><g transform="matrix(1,0,0,1,-1985.9,-263.5)"><g opacity="0.5"><path d="M2141.85,494.5l-33.045,12.285l11.618,12.674l28.783,-16.371l-7.356,-8.588Z" style="fill:#35833f;fill-rule:nonzero;"/></g></g><g transform="matrix(1,0,0,1,-1985.9,-263.5)"><g opacity="0.399994"><path d="M2154.43,493.978l24.68,-33.562l33.935,9.155l-24.692,9.429l-12.5,9.75l-21.423,5.228Z" style="fill:#35833f;fill-rule:nonzero;"/></g></g><g transform="matrix(1,0,0,1,-1985.9,-263.5)"><path d="M2151.96,494.969l64.653,-23.201l27.285,0.934l13.403,24.371l-2.145,25.092l-15.191,-28.344l-9.49,-0.182l-10.384,-10.613l3.995,10.491l-52.35,6.14l-4.747,-3.288l1.434,4.133l-19.313,2.893l2.85,-8.426Z" style="fill:#8abb6b;fill-rule:nonzero;"/></g><g transform="matrix(1,0,0,1,-1985.9,-263.5)"><path d="M2222.19,440.333l45.652,0.72l-35.002,-5.431l-10.65,4.711Z" style="fill:#8abb6b;fill-rule:nonzero;"/></g><g transform="matrix(1,0,0,1,-1985.9,-263.5)"><path d="M2164.35,447l-12.25,44l2.327,3.478l11.423,-15.728l-1.5,-31.75Z" style="fill:#35833f;fill-rule:nonzero;"/></g><g transform="matrix(1,0,0,1,-1985.9,-263.5)"><path d="M2196.35,479.25l20,-2.5l27.127,-3.238l-26.867,-1.744l-20.26,7.482Z" style="fill:#689d46;fill-rule:nonzero;"/></g><g transform="matrix(1,0,0,1,-1985.9,-263.5)"><g opacity="0.399994"><path d="M2245,385.447l1.188,4.753l-58.998,8.133l11.077,-14.074l46.733,1.188Z" style="fill:#8abb6b;fill-rule:nonzero;"/></g></g><g transform="matrix(1,0,0,1,-1985.9,-263.5)"><path d="M2142.45,472.117l3.404,11.217l6.167,7.333l4.167,-14.25l-1.75,-18.583l-7.834,13.833l-4.154,0.45Z" style="fill:#689d46;fill-rule:nonzero;"/></g><g transform="matrix(1,0,0,1,-1985.9,-263.5)"><path d="M2019.85,466.25l10.659,17.165l-38.554,2.112l10.828,-11.089l17.067,-8.188Z" style="fill:#8abb6b;fill-rule:nonzero;"/></g><g transform="matrix(1,0,0,1,-1985.9,-263.5)"><path d="M2107.22,490.809l-53.87,23.37l-0.499,8.487l54.369,-31.857Z" style="fill:#689d46;fill-rule:nonzero;"/></g></g></g></svg>

<?xml version="1.0" encoding="UTF-8" standalone="no"?>
<!DOCTYPE svg PUBLIC "-//W3C//DTD SVG 1.1//EN" "http://www.w3.org/Graphics/SVG/1.1/DTD/svg11.dtd">
<svg width="100%" height="100%" viewBox="0 0 420 620" version="1.1" xmlns="http://www.w3.org/2000/svg" xmlns:xlink="http://www.w3.org/1999/xlink" xml:space="preserve" xmlns:serif="http://www.serif.com/" style="fill-rule:evenodd;clip-rule:evenodd;stroke-linejoin:round;stroke-miterlimit:2;">
    <g id="palm-tree" transform="matrix(1.27,0,0,1.27,-3.36,-142)">
        <g transform="matrix(1,0,0,1,-1985.9,-263.5)">
            <path d="M2084.51,562.238L2083.98,570.16L2104.85,542.5L2091.35,548.5L2084.51,562.238Z" style="fill:rgb(140,173,67);fill-rule:nonzero;"/>
        </g>
        <g transform="matrix(1,0,0,1,-1985.9,-263.5)">
            <path d="M2151.19,495.166L2173.37,413.967L2197.93,384.259L2244.66,385.447L2245.85,390.2L2224.86,398.519L2221.69,395.35L2221.3,398.123L2195.55,420.303L2190.45,431.857L2184.2,436.033L2188.18,437.006L2159.68,496.553L2151.19,495.166Z" style="fill:rgb(102,156,70);fill-rule:nonzero;"/>
        </g>
        <g transform="matrix(1,0,0,1,-1985.9,-263.5)">
            <path d="M2246.72,560.027L2238.7,532.894L2248.66,550.533L2246.72,560.027Z" style="fill:rgb(138,187,106);fill-rule:nonzero;"/>
        </g>
        <g transform="matrix(1,0,0,1,-1985.9,-263.5)">
            <path d="M2146.8,501.531L2153.89,490.015L2179.61,460.416L2232.84,435.622L2267.84,441.052L2247.67,456.191L2240.8,454.818L2238.42,456.746L2240.1,460.932L2220.13,467.059L2208.1,463.478L2213.54,469.57L2188.68,479.047L2165.13,496.638L2161.08,496.225L2161.53,498.912L2152.7,504.748L2146.8,501.531Z" style="fill:rgb(102,156,70);fill-rule:nonzero;"/>
        </g>
        <g transform="matrix(1,0,0,1,-1985.9,-263.5)">
            <path d="M2159.9,493.186L2074.87,457.801L2034.21,458.857L2002.78,474.438L1991.96,485.527L2030.51,483.414L2035.26,481.039L2036.58,484.207L2087.55,480.51L2133.5,492.394L2159.9,493.186Z" style="fill:rgb(102,156,70);fill-rule:nonzero;"/>
        </g>
        <g transform="matrix(1,0,0,1,-1985.9,-263.5)">
            <path d="M2149.21,503.088L2144.54,646.875L2146.44,722.526L2140.98,816.25L2140.1,863.5L2169.41,863.5L2167.39,796.201L2160.85,708.084L2164.66,626.813L2157.92,497.938L2149.21,503.088Z" style="fill:rgb(124,112,90);fill-rule:nonzero;"/>
        </g>
        <g transform="matrix(1,0,0,1,-1985.9,-263.5)">
            <path d="M2155.28,501.107L2150.4,501.372L2143.53,481.698L2144.32,481.302L2139.43,478.662L2126.83,433.375L2137.85,429.75L2121.15,424.116L2117.92,417.134L2084.35,414.75L2111.97,400.101L2127.03,410.252L2142.08,427.945L2155.28,501.107Z" style="fill:rgb(54,130,63);fill-rule:nonzero;"/>
        </g>
        <g transform="matrix(1,0,0,1,-1985.9,-263.5)">
            <path d="M2158.27,500.992L2151.89,426.545L2139.8,402.066L2112.07,399.888L2090.09,412.174L2122.17,414.346L2126.35,421.5L2142.23,427.75L2128.99,428.693L2141.1,466.875L2146.8,471.721L2142.45,472.117L2151.56,501.422L2158.27,500.992Z" style="fill:rgb(138,187,106);fill-rule:nonzero;"/>
        </g>
        <g transform="matrix(1,0,0,1,-1985.9,-263.5)">
            <path d="M2067.88,536.097L2083.46,533.721L2150.4,501.372L2113.56,504.673L2067.88,536.097Z" style="fill:rgb(54,130,63);fill-rule:nonzero;"/>
        </g>
        <g transform="matrix(1,0,0,1,-1985.9,-263.5)">
            <path d="M2159.75,493.543L2146.44,491.205L2107.22,490.809L2053.35,514.179L2034.19,543.97L2058.9,538.927L2062.43,532.875L2065.45,532.371L2067.47,536.405L2085.3,525.534L2115.14,509.953L2143.93,504.012L2146.3,500.712L2148.02,502.824L2158.24,500.098L2159.75,493.543Z" style="fill:rgb(138,187,106);fill-rule:nonzero;"/>
        </g>
        <g transform="matrix(1,0,0,1,-1985.9,-263.5)">
            <path d="M2146.43,722.917L2141.1,816.75L2160.93,708.335" style="fill:rgb(99,88,73);fill-rule:nonzero;"/>
        </g>
        <g transform="matrix(1,0,0,1,-1985.9,-263.5)">
            <path d="M2164.66,626.813L2144.54,646.938L2159.23,523.188L2164.66,626.813Z" style="fill:rgb(153,139,116);fill-rule:nonzero;"/>
        </g>
        <g transform="matrix(1,0,0,1,-1985.9,-263.5)">
            <path d="M2160.83,491.998L2216.61,471.768L2243.48,473.512L2246.39,479.059L2236.88,476.945L2230.28,478.53L2216.81,478.794L2160.83,491.998Z" style="fill:rgb(0,112,66);fill-rule:nonzero;"/>
        </g>
        <g transform="matrix(1,0,0,1,-1985.9,-263.5)">
            <path d="M2151.06,491.998L2108.81,506.785L2084.51,562.238L2083.98,570.16L2099.83,550.619L2120.43,519.459L2151.36,502.098L2151.06,491.998Z" style="fill:rgb(102,156,70);fill-rule:nonzero;"/>
        </g>
        <g transform="matrix(1,0,0,1,-1985.9,-263.5)">
            <path d="M2135.21,510.481L2099.83,550.62L2120.43,519.46L2135.21,510.481Z" style="fill:rgb(54,130,63);fill-rule:nonzero;"/>
        </g>
        <g transform="matrix(1,0,0,1,-1985.9,-263.5)">
            <path d="M2151.17,502.692L2151.17,494.769L2231.33,509.161L2256.42,530.022L2253.51,556.693L2246.65,560.127L2247.18,549.828L2238.73,532.927L2239.26,526.326L2232.29,529.226L2213.9,518.668L2201.14,514.929L2196.48,509.5L2196.12,513.11L2151.17,502.692Z" style="fill:rgb(54,130,63);fill-rule:nonzero;"/>
        </g>
        <g transform="matrix(1,0,0,1,-1985.9,-263.5)">
            <path d="M2151.56,494.869L2231.47,509.227L2246.62,521.902L2233.81,519.144L2232.57,514.107L2230.41,517.246L2216.51,510.433L2215.22,508.565L2209.42,508.213L2151.56,494.869Z" style="fill:rgb(138,187,106);fill-rule:nonzero;"/>
        </g>
        <g transform="matrix(1,0,0,1,-1985.9,-263.5)">
            <path d="M2149.21,503.088L2154.93,493.978L2122.27,455.16L2095.14,446.05L2064.44,448.229L2051.77,462.885L2063.26,461.497L2069.79,452.387L2069.59,460.508L2091.38,459.716L2101.28,464.469L2107.02,465.063L2104.05,466.251L2127.22,481.897L2149.21,503.088Z" style="fill:rgb(54,130,63);fill-rule:nonzero;"/>
        </g>
        <g transform="matrix(1,0,0,1,-1985.9,-263.5)">
            <g opacity="0.5">
                <path d="M2141.85,494.5L2108.81,506.785L2120.43,519.459L2149.21,503.088L2141.85,494.5Z" style="fill:rgb(54,130,63);fill-rule:nonzero;"/>
            </g>
        </g>
        <g transform="matrix(1,0,0,1,-1985.9,-263.5)">
            <g opacity="0.4">
                <path d="M2154.43,493.978L2179.11,460.416L2213.04,469.571L2188.35,479L2175.85,488.75L2154.43,493.978Z" style="fill:rgb(54,130,63);fill-rule:nonzero;"/>
            </g>
        </g>
        <g transform="matrix(1,0,0,1,-1985.9,-263.5)">
            <path d="M2151.96,494.969L2216.61,471.768L2243.9,472.702L2257.3,497.073L2255.15,522.165L2239.96,493.821L2230.47,493.639L2220.09,483.026L2224.08,493.517L2171.73,499.657L2166.99,496.369L2168.42,500.502L2149.11,503.395L2151.96,494.969Z" style="fill:rgb(138,187,106);fill-rule:nonzero;"/>
        </g>
        <g transform="matrix(1,0,0,1,-1985.9,-263.5)">
            <path d="M2222.19,440.333L2267.84,441.053L2232.84,435.622L2222.19,440.333Z" style="fill:rgb(138,187,106);fill-rule:nonzero;"/>
        </g>
        <g transform="matrix(1,0,0,1,-1985.9,-263.5)">
            <path d="M2164.35,447L2152.1,491L2154.43,494.478L2165.85,478.75L2164.35,447Z" style="fill:rgb(54,130,63);fill-rule:nonzero;"/>
        </g>
        <g transform="matrix(1,0,0,1,-1985.9,-263.5)">
            <path d="M2196.35,479.25L2216.35,476.75L2243.48,473.512L2216.61,471.768L2196.35,479.25Z" style="fill:rgb(102,156,70);fill-rule:nonzero;"/>
        </g>
        <g transform="matrix(1,0,0,1,-1985.9,-263.5)">
            <g opacity="0.4">
                <path d="M2244.99,385.447L2246.18,390.2L2187.18,398.333L2198.26,384.259L2244.99,385.447Z" style="fill:rgb(138,187,106);fill-rule:nonzero;"/>
            </g>
        </g>
        <g transform="matrix(1,0,0,1,-1985.9,-263.5)">
            <path d="M2142.45,472.117L2145.85,483.334L2152.02,490.667L2156.18,476.417L2154.43,457.834L2146.6,471.667L2142.45,472.117Z" style="fill:rgb(102,156,70);fill-rule:nonzero;"/>
        </g>
        <g transform="matrix(1,0,0,1,-1985.9,-263.5)">
            <path d="M2019.85,466.25L2030.51,483.415L1991.96,485.527L2002.79,474.438L2019.85,466.25Z" style="fill:rgb(138,187,106);fill-rule:nonzero;"/>
        </g>
        <g transform="matrix(1,0,0,1,-1985.9,-263.5)">
            <path d="M2107.22,490.809L2053.35,514.179L2052.85,522.666L2107.22,490.809Z" style="fill:rgb(102,156,70);fill-rule:nonzero;"/>
        </g>
    </g>
</svg>
